packages/icons/src/globe.svg

<svg width="15" height="15" viewBox="0 0 15 15" fill="none" xmlns="http://www.w3.org/2000/svg">
  <path
    fill-rule="evenodd"
    clip-rule="evenodd"
    d="M7.49996 1.80002C4.35194 1.80002 1.79996 4.352 1.79996 7.50002C1.79996 10.648 4.35194 13.2 7.49996 13.2C10.648 13.2 13.2 10.648 13.2 7.50002C13.2 4.352 10.648 1.80002 7.49996 1.80002ZM0.899963 7.50002C0.899963 3.85494 3.85488 0.900024 7.49996 0.900024C11.145 0.900024 14.1 3.85494 14.1 7.50002C14.1 11.1451 11.145 14.1 7.49996 14.1C3.85488 14.1 0.899963 11.1451 0.899963 7.50002Z"
    fill="currentColor"
  />
  <path
    fill-rule="evenodd"
    clip-rule="evenodd"
    d="M13.4999 7.89998H1.49994V7.09998H13.4999V7.89998Z"
    fill="currentColor"
  />
  <path
    fill-rule="evenodd"
    clip-rule="evenodd"
    d="M7.09991 13.5V1.5H7.89991V13.5H7.09991zM10.375 7.49998C10.375 5.32724 9.59364 3.17778 8.06183 1.75656L8.53793 1.24341C10.2396 2.82218 11.075 5.17273 11.075 7.49998 11.075 9.82724 10.2396 12.1778 8.53793 13.7566L8.06183 13.2434C9.59364 11.8222 10.375 9.67273 10.375 7.49998zM3.99969 7.5C3.99969 5.17611 4.80786 2.82678 6.45768 1.24719L6.94177 1.75281C5.4582 3.17323 4.69969 5.32389 4.69969 7.5 4.6997 9.67611 5.45822 11.8268 6.94179 13.2472L6.45769 13.7528C4.80788 12.1732 3.9997 9.8239 3.99969 7.5z"
    fill="currentColor"
  />
  <path
    fill-rule="evenodd"
    clip-rule="evenodd"
    d="M7.49996 3.95801C9.66928 3.95801 11.8753 4.35915 13.3706 5.19448 13.5394 5.28875 13.5998 5.50197 13.5055 5.67073 13.4113 5.83948 13.198 5.89987 13.0293 5.8056 11.6794 5.05155 9.60799 4.65801 7.49996 4.65801 5.39192 4.65801 3.32052 5.05155 1.97064 5.8056 1.80188 5.89987 1.58866 5.83948 1.49439 5.67073 1.40013 5.50197 1.46051 5.28875 1.62927 5.19448 3.12466 4.35915 5.33063 3.95801 7.49996 3.95801zM7.49996 10.85C9.66928 10.85 11.8753 10.4488 13.3706 9.6135 13.5394 9.51924 13.5998 9.30601 13.5055 9.13726 13.4113 8.9685 13.198 8.90812 13.0293 9.00238 11.6794 9.75643 9.60799 10.15 7.49996 10.15 5.39192 10.15 3.32052 9.75643 1.97064 9.00239 1.80188 8.90812 1.58866 8.9685 1.49439 9.13726 1.40013 9.30601 1.46051 9.51924 1.62927 9.6135 3.12466 10.4488 5.33063 10.85 7.49996 10.85z"
    fill="currentColor"
  />
</svg>

<svg xmlns="http://www.w3.org/2000/svg" width="15" height="15" fill="none"><path fill="currentColor" fill-rule="evenodd" d="M7.5 1.8a5.7 5.7 0 1 0 0 11.4 5.7 5.7 0 0 0 0-11.4M.9 7.5a6.6 6.6 0 1 1 13.2 0 6.6 6.6 0 0 1-13.2 0" clip-rule="evenodd"/><path fill="currentColor" fill-rule="evenodd" d="M13.5 7.9h-12v-.8h12z" clip-rule="evenodd"/><path fill="currentColor" fill-rule="evenodd" d="M7.1 13.5v-12h.8v12zm3.275-6c0-2.173-.781-4.322-2.313-5.743l.476-.514c1.702 1.58 2.537 3.93 2.537 6.257s-.835 4.678-2.537 6.257l-.476-.514c1.532-1.42 2.313-3.57 2.313-5.743M4 7.5c0-2.324.808-4.673 2.458-6.253l.484.506C5.458 3.173 4.7 5.323 4.7 7.5s.758 4.327 2.242 5.747l-.484.506C4.808 12.173 4 9.823 4 7.5" clip-rule="evenodd"/><path fill="currentColor" fill-rule="evenodd" d="M7.5 3.958c2.17 0 4.375.401 5.87 1.236a.35.35 0 1 1-.34.612c-1.35-.754-3.422-1.148-5.53-1.148s-4.18.394-5.53 1.148a.35.35 0 1 1-.34-.612c1.495-.835 3.7-1.236 5.87-1.236m0 6.892c2.17 0 4.375-.401 5.87-1.236a.35.35 0 1 0-.34-.612c-1.35.754-3.422 1.148-5.53 1.148s-4.18-.394-5.53-1.148a.35.35 0 1 0-.34.611c1.495.836 3.7 1.237 5.87 1.237" clip-rule="evenodd"/></svg>
